!!!!SEGMENT: pl-kk--i-533--002_studzinski-piotr--nr-2-inclina-domine-aurem-tuam.krn
!!!cenid: 18xx:4471
!!!COM: Studziński, Piotr
!!!COM-rismID: pe50044409
!!!CDT: 1825/10/16-1869/04/20
!!!CNT: Polish
!!!OTL: Nr 2. Inclina Domine aurem tuam
!!!PDT:
!!!AGN: Sacred
!!!YEC: Copyright 2022 Narodowy Instytut Fryderyka Chopina (https://polishscores.org)
!!!YEM: License CC-BY-4.0 (https://creativecommons.org/licenses/by/4.0)
!!!SMS-siglum: PL-Kk
!!!SMS-shelfmark: I.533
!!!SMS-variant: Soprano PL-Kk KK.I.533:1; Alto PL-Kk KK.I.533:5-6v; Tenor PL-Kk KK.I.533:9-10v; Basſo PL-Kk KK.I.533:13-14v.
!!!SMS-altvar: Partytura PL-Kk KK.I.533:19v.
!!!SMS-shelfwork: 002 W
!!!NIFC-rismSourceID: 1001210519
!!!NIFC-rismChildID: 1001210524
!!!NIFC-islandoraID: pl-kk:16805
!!!URL-pdf-islandora: https://repozytorium.nifc.pl/islandora/object/pl-kk%3A16805/datastream/PDF/view
!!!URL-scan: https://polish.musicsources.pl/pl/lokalizacje/galeria/rekopisy/7160/1 @EN{Scan on Polish Music Sources Website} @PL{Skany w portalu Dziedzictwo Muzyki Polskiej w otwartym dostępie}
!!!IIIF:
!!!ONB-nifc:
!!!OMD: allegro molto
!!!AIN: 1 alto 1 bass 1 soprn 1 tenor
!!!key: G
**kern	**text	**dynam	**kern	**text	**dynam	**kern	**text	**dynam	**kern	**text	**dynam
*part4	*part4	*part4	*part3	*part3	*part3	*part2	*part2	*part2	*part1	*part1	*part1
*staff4	*staff4	*	*staff3	*staff3	*	*staff2	*staff2	*	*staff1	*staff1	*
*I"Basſo	*	*	*I"Tenor	*	*	*I"Alto	*	*	*I"Soprano	*	*
*I'B	*	*	*I'T	*	*	*I'A	*	*	*I'S	*	*
*Ibass	*	*	*Itenor	*	*	*Ialto	*	*	*Isoprn	*	*
*ICvox	*	*	*ICvox	*	*	*ICvox	*	*	*ICvox	*	*
*clefF4	*	*	*clefC4	*	*	*clefC3	*	*	*clefG2	*	*
*k[f#]	*	*	*k[f#]	*	*	*k[f#]	*	*	*k[f#]	*	*
*G:	*	*	*G:	*	*	*G:	*	*	*G:	*	*
*M4/4	*	*	*M4/4	*	*	*M4/4	*	*	*M4/4	*	*
*met(c)	*	*	*met(c)	*	*	*met(c)	*	*	*met(c)	*	*
=1	=1	=1	=1	=1	=1	=1	=1	=1	=1	=1	=1
*2\right	*	*	*2\right	*	*	*2\right	*	*	*	*	*
!!LO:TX:t=P:problem=all\right
!	!	!	!	!	!LO:DY:b:rj	!	!	!LO:DY:b:rj	!	!	!LO:DY:b:rj
2G\	In-	f	2d\	In-	f	2g\	In-	f	2b/	In-	f
4G\	-cli-	.	4c\	-cli-	.	4f#\	-cli-	.	4a/	-cli-	.
4G\	-na	.	4B\	-na	.	4d\	-na	.	4g/	-na	.
=2	=2	=2	=2	=2	=2	=2	=2	=2	=2	=2	=2
4.F#\	Do-	.	4.d\	Do-	.	4.a\	Do-	.	4.dd\	Do-	.
8F#\	-mi-	.	8d\	-mi-	.	8a\	-mi-	.	8cc\	-mi-	.
4G\	-ne	.	4d\	-ne	.	4g\	-ne	.	4b\	-ne	.
4r	.	.	4r	.	.	4r	.	.	4r	.	.
=3	=3	=3	=3	=3	=3	=3	=3	=3	=3	=3	=3
2C/	au-	.	2c\	au-	.	(2e\	au-	.	(2g/	au-	.
4c\	.	.	4e\	.	.	4g\)	.	.	4r	.	.
!	!	!	!	!	!	!	!	!	!LO:N:vis=4ee\L)	!	!
4B\	-rem	.	4d\	-rem	.	4g\	-rem	.	8ee\L)	.	.
!	!	!	!	!	!	!	!	!	!LO:N:vis=4dd\J	!	!
.	.	.	.	.	.	.	.	.	8dd\J	-rem	.
=4	=4	=4	=4	=4	=4	=4	=4	=4	=4	=4	=4
(4A\	tu-	.	(4e\	tu-	.	(4e\	tu-	.	(4dd\	tu-	.
4D\)	.	.	4d\)	.	.	4f#\)	.	.	4cc\	.	.
4G\	-am	.	4d\	-am	.	4g\	-am	.	4b\)	-am	.
4r	.	.	4r	.	.	4r	.	.	4r	.	.
!	!	!	!LO:LB:g=original	!	!	!	!	!	!	!	!
=5	=5	=5	=5	=5	=5	=5	=5	=5	=5	=5	=5
*	*	*	*	*	*	*	*	*	*2\right	*	*
(2G\	et-	.	(2e\	et-	.	2.a\	et	.	(2cc#X\	et	.
4F#\)	.	.	4d\)	.	.	.	.	.	4dd\)	.	.
4E\	-ex	.	4c#X\	-ex-	.	4a\	ex-	.	4ee\	ex-	.
!LO:LB:g=original	!	!	!	!	!	!	!	!	!LO:LB:g=original	!	!
=6	=6	=6	=6	=6	=6	=6	=6	=6	=6	=6	=6
(4D\	au-	.	(2d\	-au-	.	2a\	-au-	.	(4ff#\	-au-	.
4F#\	.	.	.	.	.	.	.	.	4dd\	.	.
4G\)	-di	.	4d\)	-di	.	(8a\L	.	.	8cc#X\L)	-di	.
.	.	.	.	.	.	8g\J)	.	.	8b\J	.	.
4G\	ex-	.	4B\	ex-	.	(8f#\L	-di	.	8a/L	ex-	.
.	.	.	.	.	.	8e\J)	.	.	8g/J	.	.
!	!	!	!	!	!	!LO:LB:g=original	!	!	!	!	!
=7	=7	=7	=7	=7	=7	=7	=7	=7	=7	=7	=7
2A\	-au-	.	2A/	-au-	.	2d\	au-	.	2f#/	-au-	.
2AA/	di	.	2G/	-di	.	2c#X\	-di	.	2e/	-di	.
=8	=8	=8	=8	=8	=8	=8	=8	=8	=8	=8	=8
4D\	me	.	4F#/	me	.	4d\	me	.	4d/	me	.
4r	.	.	4r	.	.	4r	.	.	4r	.	.
2r	.	.	2r	.	.	2r	.	.	2r	.	.
=9	=9	=9	=9	=9	=9	=9	=9	=9	=9	=9	=9
!	!	!LO:DY:b:rj	!	!	!LO:DY:b:rj	!	!	!LO:DY:b:rj	!	!	!LO:DY:b:rj
4.D\	quo-	pp	4.d\	quo-	pp	4.f#\	quo-	pp	4.a/	quo-	pp
8D\	-ni-	.	8d\	-ni-	.	8f#\	-ni-	.	8a/	-ni-	.
4D\	-am	.	4d\	-am	.	4f#\	-am	.	4a/	-am	.
4D\	in	.	4d\	in	.	4f#\	in	.	4a/	in	.
=10	=10	=10	=10	=10	=10	=10	=10	=10	=10	=10	=10
(2G\	ops-	.	2.d\	ops-	.	(4g\	ops-	.	(4b\	ops-	.
.	.	.	.	.	.	4b\	.	.	4dd\	.	.
4F#\)	.	.	.	.	.	4a\)	.	.	4cc\)	.	.
4G\	-et	.	4d\	et	.	4g\	-et	.	4b\	-et	.
=11	=11	=11	=11	=11	=11	=11	=11	=11	=11	=11	=11
2D\	pau-	.	2d\	pau-	.	2f#\	pau-	.	2a/	pau-	.
4D\	-per	.	4d\	-per	.	4e\	-per	.	4g/	-per	.
4D\	sum	.	4d\	sum	.	4f#\	sum	.	4a/	sum	.
!LO:LB:g=original	!	!	!LO:LB:g=original	!	!	!	!	!	!	!	!
=12	=12	=12	=12	=12	=12	=12	=12	=12	=12	=12	=12
2G\	e-	.	2d\	e-	.	2g\	e-	.	2b/	e-	.
4G\	-go	.	4B\	-go	.	4d\	-go	.	4g/	-go	.
4r	.	.	4r	.	.	4r	.	.	4r	.	.
!	!	!	!	!	!	!	!	!	!LO:LB:g=original	!	!
=13	=13	=13	=13	=13	=13	=13	=13	=13	=13	=13	=13
!LO:TX:a:t=1	!	!	!	!	!LO:HP:b	!	!	!LO:HP:b	!	!	!
1r	.	.	4.e\	Cu-	<	4.g\	Cu-	<	4.cc\	Cu-	.
.	.	.	8e\	-sto	.	8g\	-sto	.	8cc\	-sto	.
.	.	.	4d\	di	.	4g\	di	.	4b\	di	.
.	.	.	4r	.	.	4r	.	.	4r	.	.
!LO:PB:g=original	!	!	!	!	!	!LO:LB:g=original	!	!	!	!	!
=14	=14	=14	=14	=14	=14	=14	=14	=14	=14	=14	=14
!	!	!LO:DY:b:rj	!	!	!LO:DY:b:rj	!	!	!LO:DY:b:rj	!	!	!LO:DY:b:rj
4c\	Cu-	f	4e\	Cu-	f	4g\	Cu-	f	4.ee\	Cus-	f
4c\	-sto-	.	4f#\	-sto	.	4a\	-sto	.	.	.	.
.	.	.	.	.	.	.	.	.	8ee\	-to	.
4B\	-di	.	4d\	di	.	4g\	di	.	4dd\	di	.
4r	.	.	4r	.	.	4r	.	.	4r	.	.
=15	=15	=15	=15	=15	=15	=15	=15	=15	=15	=15	=15
2F#\	a-	.	2d\	a-	.	2a\	a-	.	(4dd\	a-	.
.	.	.	.	.	.	.	.	.	4cc\)	.	.
4G\	-ni-	.	4d\	-ni-	.	4g\	-ni-	.	4b\	-ni	.
4C/	-mam	.	4e\	-mam	.	4a\	-mam	.	8dd\L	mam	.
.	.	.	.	.	.	.	.	.	8cc\J	.	.
=16	=16	=16	=16	=16	=16	=16	=16	=16	=16	=16	=16
2D\	me-	.	(4d\	me-	.	(4g\	me-	.	2b\	me-	.
.	.	.	4c#X\)	.	.	4e\)	.	.	.	.	.
4D\	-am	.	4d\	-am	.	4f#\	-am	.	4a\	-am	.
4r	.	.	4r	.	.	4r	.	.	4r	.	.
=17	=17	=17	=17	=17	=17	=17	=17	=17	=17	=17	=17
!	!	!LO:DY:b:rj	!	!	!LO:DY:b:rj	!	!	!LO:DY:b:rj	!	!	!LO:DY:b:rj
4.G\	quo-	p	4.B\	quo-	p	4.d\	quo-	p	4.g/	quo-	p
8G\	-ni-	.	8B\	-ni-	.	8d\	-ni-	.	8g/	-ni-	.
4G\	-am	.	4B\	-am	.	4d\	-am	.	4g/	-am	.
4r	.	.	4r	.	.	4r	.	.	4r	.	.
!	!	!	!LO:LB:g=original	!	!	!	!	!	!	!	!
=18	=18	=18	=18	=18	=18	=18	=18	=18	=18	=18	=18
4.Fn\	quo-	.	4.d\	quo-	.	4.g\	quo-	.	4.b\	quo-	.
8F\	-ni-	.	8d\	-ni-	.	8g\	-ni-	.	8b\	-ni-	.
4F\	-am	.	4d\	-am	.	4g\	-am	.	4b\	-am	.
4r	.	.	4r	.	.	4r	.	.	4r	.	.
!	!	!	!	!	!	!	!	!	!LO:LB:g=original	!	!
=19	=19	=19	=19	=19	=19	=19	=19	=19	=19	=19	=19
2.E\	San-	.	2.e\	San-	.	(2g#X\	San-	.	(2b\	San-	.
.	.	.	.	.	.	4f#X\)	.	.	4a\)	.	.
4E\	-ctus	.	4e\	-ctus	.	4g#\	-ctus	.	4b\	-ctus	.
!LO:LB:g=original	!	!	!	!	!	!	!	!	!	!	!
=20	=20	=20	=20	=20	=20	=20	=20	=20	=20	=20	=20
(2.A\	est	.	4e\	est	.	4a\	est	.	4cc\	es	.
.	.	.	4r	.	.	4r	.	.	4r	.	.
.	.	.	2r	.	.	2r	.	.	2r	.	.
4G\)	.	.	.	.	.	.	.	.	.	.	.
!	!	!	!LO:PB:g=original	!	!	!LO:PB:g=original	!	!	!LO:PB:g=original	!	!
=21	=21	=21	=21	=21	=21	=21	=21	=21	=21	=21	=21
2F#\	Sal-	.	2d\	Sal-	.	2cc\	Sal-	.	2ee\	Sal-	.
4F#\	-vum	.	4d\	-vum	.	4b\	-vum	.	4dd\	-vum	.
4F#\	fac	.	4d\	fac	.	4a\	fac	.	4cc\	fac	.
=22	=22	=22	=22	=22	=22	=22	=22	=22	=22	=22	=22
2G\	ser-	.	2d\	ser-	.	2a\	ser-	.	2cc\	ser-	.
4G\	-vum	.	4d\	-vum	.	4g\	-vum	.	4b\	-vum	.
4r	.	.	4r	.	.	4r	.	.	4r	.	.
=23	=23	=23	=23	=23	=23	=23	=23	=23	=23	=23	=23
2.D#X\	Ser-	.	(2A\	Ser-	.	(2f#\	Ser-	.	(2cc\	Ser-	.
.	.	.	4B\)	-vum	.	4g\)	.	.	4b\)	.	.
4D#\	-vum	.	4c\	.	.	4f#\	-vum	.	4a\	-vum	.
=24	=24	=24	=24	=24	=24	=24	=24	=24	=24	=24	=24
2E\	tu-	.	2B\	tu-	.	2f#\	tu-	.	2a/	tu-	.
4E\	-um	.	4B\	-um	.	4e\	-um	.	4g/	-um	.
4r	.	.	4r	.	.	4r	.	.	4r	.	.
=25	=25	=25	=25	=25	=25	=25	=25	=25	=25	=25	=25
2C/	De-	.	2e\	De-	.	2g\	De-	.	2a/	De-	.
4C/	-us	.	4e\	-us	.	4g\	-us	.	4a/	-us	.
4r	.	.	4r	.	.	4r	.	.	4r	.	.
=26	=26	=26	=26	=26	=26	=26	=26	=26	=26	=26	=26
2AA/	me-	.	2c#X\	me-	.	2g\	me-	.	2a/	me-	.
4A\	-us	.	4c#\	-us	.	4g\	-us	.	4a/	-us	.
4A\	spe-	.	4c#\	spe-	.	4g\	spe-	.	4a/	spe-	.
!LO:LB:g=original	!	!	!LO:LB:g=original	!	!	!	!	!	!	!	!
=27	=27	=27	=27	=27	=27	=27	=27	=27	=27	=27	=27
2D\	-ran-	.	2d\	-rum-	.	2g\	-run-	.	2b\	-run-	.
4D\	-tem	.	4A\	-tem	.	4f#\	-tem	.	(8dd\L	-tem	.
.	.	.	.	.	.	.	.	.	8cc\J)	.	.
4D\	in	.	4cn\	in	.	4f#\	in	.	(8b\L	in	.
.	.	.	.	.	.	.	.	.	8a\J)	.	.
!	!	!	!	!	!	!LO:LB:g=original	!	!	!LO:LB:g=original	!	!
=28	=28	=28	=28	=28	=28	=28	=28	=28	=28	=28	=28
4G\	te	.	4B\	te	.	4d\	te	.	4g/	te	.
4r	.	.	4r	.	.	4r	.	.	4r	.	.
4r	.	.	4r	.	.	4r	.	.	4r	.	.
4G\	In-	.	4B\	In-	.	4d\	In-	.	4g/	In	.
=29	=29	=29	=29	=29	=29	=29	=29	=29	=29	=29	=29
!	!	!LO:HP:b	!	!	!LO:HP:b	!	!	!	!	!	!LO:HP:a
(2C/	-cli-	<	(2G/	-cli-	<	(2c\	-cli-	.	(4e/	cli-	<
.	.	.	.	.	.	.	.	.	4g/)	.	.
4E\)	.	[	4c\)	.	.	4g\)	.	.	4cc\	.	.
4C/	-na	.	4c\	-na	[	4g\	-na	.	4ee\	-na	[
=30	=30	=30	=30	=30	=30	=30	=30	=30	=30	=30	=30
!	!	!LO:DY:b:rj	!	!	!LO:DY:b:rj	!	!	!	!	!	!LO:DY:b:rj
2G\	Do-	f	2B\	Do-	f	2g\	Do-	.	2dd\	Do-	f
4G\	-mi-	.	4d\	-mi-	.	4g\	-mi-	.	4b\	-mi-	.
4G\	-ne	.	4B\	-ne	.	4d\	-ne	.	4g\	-ne	.
=31	=31	=31	=31	=31	=31	=31	=31	=31	=31	=31	=31
!	!	!LO:DY:b:rj	!	!	!LO:DY:b:rj	!	!	!	!	!	!
2.D\	au-	p	2.d\	au-	p	(2f#\	au-	.	(2a/	au-	.
.	.	.	.	.	.	4e\)	.	.	4g/)	.	.
4D\	-rem	.	4d\	-rem	.	4f#\	-rem	.	4a/	-rem	.
=32	=32	=32	=32	=32	=32	=32	=32	=32	=32	=32	=32
2.G\	tu-	.	2d\	tu-	.	2g\	tu-	.	2b/	tu-	.
.	.	.	4B\	-am	.	4d\	-am	.	4g/	-am	.
4Fn\	-am	.	4r	.	.	4r	.	.	4r	.	.
!	!	!	!LO:LB:g=original	!	!	!	!	!	!	!	!
=33	=33	=33	=33	=33	=33	=33	=33	=33	=33	=33	=33
!	!	!	!	!	!LO:HP:b	!	!	!LO:DY:b:rj	!	!	!LO:HP:a
(2E\	et	.	2.G/	et	<	(2c\	et-	f	2g/	et	<
4C\)	.	.	.	.	.	4e\)	.	.	4cc\	.	.
4E\	ex-	.	4c\	ex-	[	4g\	-ex-	.	4ee\	ex-	[
!LO:LB:g=original	!	!	!	!	!	!	!	!	!	!	!
=34	=34	=34	=34	=34	=34	=34	=34	=34	=34	=34	=34
!	!	!LO:DY:b:rj	!	!	!LO:DY:b:rj	!	!	!	!	!	!LO:DY:b:rj
2G\	-au-	f	2B\	-au-	f	2g\	-au-	.	2dd\	-au-	f
4G\	-di	.	4d\	-di	.	4g\	-di	.	4b\	-di	.
4E\	ex-	.	4B\	ex-	.	4e\	ex-	.	4g/	ex-	.
!	!	!	!	!	!	!LO:LB:g=original	!	!	!LO:LB:g=original	!	!
=35	=35	=35	=35	=35	=35	=35	=35	=35	=35	=35	=35
!	!	!LO:DY:b:rj	!	!	!LO:DY:b:rj	!	!	!LO:DY:b:rj	!	!	!
2C\	-au-	p	(2e\	-au-	p	2g\	-au-	p	(2a/	-au-	.
2D\	-di	.	4d\)	-di-	.	2f#\	-di-	.	4b/)	.	.
.	.	.	4c\	.	.	.	.	.	4a/	-di	.
=36	=36	=36	=36	=36	=36	=36	=36	=36	=36	=36	=36
4G\	me	.	4B\	-me	.	4d\	-me	.	4g/	me	.
4r	.	.	4r	.	.	4r	.	.	4r	.	.
4r	.	.	4r	.	.	4r	.	.	4r	.	.
!	!	!LO:DY:b:rj	!	!	!LO:DY:b:rj	!	!	!LO:DY:b:rj	!	!	!LO:DY:b:rj
4c\	ex-	f	4e\	ex-	f	4g\	ex-	f	4cc\	ex-	f
=37	=37	=37	=37	=37	=37	=37	=37	=37	=37	=37	=37
2.c\	-au-	.	2.e\	-au-	.	2.g\	-au-	.	2.cc\	-au-	.
4G\	-di	.	4d\	-di	.	4g\	-di	.	4b\	-di	.
=38	=38	=38	=38	=38	=38	=38	=38	=38	=38	=38	=38
2G\	me	.	2d\	me	.	2g\	me	.	2b\	me	.
4r	.	.	4r	.	.	4r	.	.	4r	.	.
!	!	!LO:DY:b:rj	!	!	!LO:DY:b:rj	!	!	!LO:DY:b:rj	!	!	!LO:DY:b:rj
4C/	ex-	p	4c\	ex-	p	4e\	ex-	p	4g/	ex-	p
=39	=39	=39	=39	=39	=39	=39	=39	=39	=39	=39	=39
2.C/	-au-	.	2.c\	-au-	.	2.e\	-au-	.	2.g/	-au-	.
4GG/ 4G	-di	.	4B\	-di	.	4d\	-di	.	4g/	-di	.
!	!	!	!LO:LB:g=original	!	!	!	!	!	!	!	!
=40	=40	=40	=40	=40	=40	=40	=40	=40	=40	=40	=40
1GG 1G	me	.	1B;	me	.	1d;	me	.	1g;	me	.
==	==	==	==	==	==	==	==	==	==	==	==
*-	*-	*-	*-	*-	*-	*-	*-	*-	*-	*-	*-
!!!system-decoration: [(s1,s2,s3,s4)]
!!!ENC: Berenika Jozajtis
!!!END: 2023-10-26
!!!EED: Marta Chmielewska
!!!EEV: 2024-04-30
